X:1
T:The Captain's Lady
M:4/4
L:1/8
K:D
 F2| D2 F2 A4| D2 F2B-AG-F| G2 E4 F2| D2 F2 A4| F2 d2 c c2 B| A2 F4 de|\
f-de-c d4| D2 A2B-AG-F| G2 E4 de|f-de-c d4| F2 d2 c c2 B| A2 F4||
